svgs/kanopy.svg

<?xml version="1.0" encoding="UTF-8" standalone="no"?>
<svg
   width="192"
   height="192"
   viewBox="0 0 50.799999 50.8"
   version="1.1"
   id="svg1"
   xml:space="preserve"
   xmlns="http://www.w3.org/2000/svg"
   xmlns:svg="http://www.w3.org/2000/svg"><defs
     id="defs1" /><path
     style="fill:none;stroke:#000000;stroke-width:3.175;stroke-linecap:round;stroke-linejoin:round;stroke-miterlimit:32;stroke-dasharray:none;stroke-opacity:1;paint-order:stroke fill markers"
     d="M 9.9247032,6.30153 16.22907,5.8207708 16.229125,44.979169 H 21.296051 9.7895832"
     id="path1" /><path
     style="fill:none;stroke:#000000;stroke-width:3.175;stroke-linecap:round;stroke-linejoin:round;stroke-miterlimit:32;stroke-dasharray:none;stroke-opacity:1;paint-order:stroke fill markers"
     d="M 16.552862,36.993576 32.667938,20.433899 H 37.094807 24.92888"
     id="path2" /><path
     style="fill:none;stroke:#000000;stroke-width:3.175;stroke-linecap:round;stroke-linejoin:round;stroke-miterlimit:32;stroke-dasharray:none;stroke-opacity:1;paint-order:stroke fill markers"
     d="M 24.387466,29.204511 36.891473,44.979216 H 42.031246 30.120103"
     id="path3" /></svg>

<svg xmlns="http://www.w3.org/2000/svg" xml:space="preserve" width="192" height="192" viewBox="0 0 50.8 50.8"><path d="m9.925 6.302 6.304-.481v39.158h5.067H9.79" style="fill:none;stroke:#000;stroke-width:3.175;stroke-linecap:round;stroke-linejoin:round;stroke-miterlimit:32;stroke-dasharray:none;stroke-opacity:1;paint-order:stroke fill markers"/><path d="m16.553 36.994 16.115-16.56h4.427-12.166" style="fill:none;stroke:#000;stroke-width:3.175;stroke-linecap:round;stroke-linejoin:round;stroke-miterlimit:32;stroke-dasharray:none;stroke-opacity:1;paint-order:stroke fill markers"/><path d="m24.387 29.205 12.504 15.774h5.14-11.91" style="fill:none;stroke:#000;stroke-width:3.175;stroke-linecap:round;stroke-linejoin:round;stroke-miterlimit:32;stroke-dasharray:none;stroke-opacity:1;paint-order:stroke fill markers"/></svg>
